components/Company/logos/logo-nydig.svg

<svg height="140" viewBox="0 0 400 140" width="400" xmlns="http://www.w3.org/2000/svg"><g fill="none" transform="translate(25 34)"><path d="m0 0h72.83237v72.83237h-72.83237z" fill="#000"/><path d="m57.3271676 64.2320809-48.51242772-55.20491327h6.69046242l48.5124278 55.20491327z" fill="#21d083"/><g fill="#222"><path d="m116.079827 9.56026012h7.290115l29.923989 34.98887278v-34.98887278h10.358381v53.71184968h-7.289306l-29.925203-34.9888728v34.9888728h-10.358381z"/><path d="m198.949913 38.9477168v24.324393h-10.358381v-24.324393l-18.415867-29.38745668h11.816445l11.816243 18.87572258 11.740375-18.87572258h11.815434z"/><path d="m240.768439 9.56026012c3.650055-.08175707 7.293106.35764084 10.819047 1.30491328 2.758703.7925777 5.35613 2.065164 7.673092 3.7593642 3.320071 2.4493097 6.004065 5.6594049 7.826647 9.3607803 1.909839 3.863033 2.882539 8.1217333 2.839249 12.4308671.043679 4.3091755-.929042 8.5679648-2.839249 12.430867-1.822932 3.7014832-4.506845 6.9118972-7.826647 9.3619942-2.316839 1.6941199-4.914325 2.9663244-7.673092 3.7581503-3.525826.947868-7.168963 1.3872762-10.819047 1.3049133h-16.880722v-53.71184968zm18.798035 26.85592488c.01411-2.1657318-.33584-4.3184364-1.035231-6.3681792-.647846-1.9171759-1.621254-3.7083609-2.877486-5.2949133-1.480287-1.8891466-3.386811-3.4009857-5.563584-4.4118208-2.575517-1.1194747-5.366349-1.656779-8.17341-1.5735838h-7.673092v35.2957803h7.673092c2.807109.0837894 5.598069-.4535397 8.17341-1.5735838 2.177187-1.0095153 4.083897-2.5210159 5.563584-4.4104046 1.256232-1.5865525 2.22964-3.3777374 2.877486-5.2949133.699495-2.0497865 1.049448-4.2025753 1.035231-6.3683815z"/><path d="m278.366329 9.56026012h10.358382v53.71184968h-10.358382z"/><path d="m325.402283 18.0011272c-2.442461-.0235706-4.861968.472979-7.097717 1.4566474-2.128703.940641-4.05636 2.2823902-5.677687 3.9519653-1.623056 1.6792271-2.900732 3.6606983-3.760578 5.832052-.90616 2.2824726-1.362188 4.7186984-1.342948 7.1743931-.021844 2.5005758.46121 4.9798397 1.420231 7.2893063 1.799132 4.3953073 5.279504 7.8898091 9.667485 9.7067341 4.452295 1.7948064 9.409011 1.890355 13.927168.2684682 1.908358-.7193204 3.694331-1.7287241 5.294913-2.9926011v-11.5858093h-13.811849v-9.2086416h24.169826v23.8631214c-2.515538 3.1585924-5.716531 5.7036689-9.36078 7.442659-4.119823 1.9560429-8.637679 2.9284143-13.197428 2.8404624-3.940519.0472037-7.851681-.6829725-11.50974-2.1487572-3.349896-1.3471867-6.40089-3.3424294-8.978006-5.8713006-2.524461-2.5061468-4.520594-5.4931925-5.870289-8.7843931-1.417042-3.4298321-2.13426-7.1082993-2.109508-10.8192485-.024853-3.7072864.67897-7.383332 2.071474-10.8192486 1.322392-3.287096 3.292466-6.2746133 5.793005-8.7847977 2.558987-2.5323923 5.597836-4.5283714 8.938353-5.8708959 3.657908-1.46606017 7.56906-2.19624724 11.509538-2.14875725 3.758874-.04451358 7.48897.66008905 10.972601 2.07268785 3.214434 1.3097442 6.155512 3.2092102 8.671503 5.6004046l-6.676301 7.0606937c-1.66889-1.657924-3.617037-3.0086009-5.754971-3.99-2.286917-1.041645-4.775513-1.5658216-7.288295-1.5351445z"/></g></g></svg>

<?xml version="1.0" encoding="UTF-8"?>
<svg width="400px" height="140px" viewBox="0 0 400 140" version="1.1" xmlns="http://www.w3.org/2000/svg" xmlns:xlink="http://www.w3.org/1999/xlink">
    <title>Artboard</title>
    <g id="Artboard" stroke="none" stroke-width="1" fill="none" fill-rule="evenodd">
        <g id="nydig" transform="translate(25.000000, 34.000000)" fill-rule="nonzero">
            <rect id="Rectangle" fill="#000000" x="0" y="0" width="72.8323699" height="72.8323699"></rect>
            <polygon id="Path" fill="#21D083" points="57.3271676 64.2320809 8.81473988 9.02716763 15.5052023 9.02716763 64.0176301 64.2320809"></polygon>
            <polygon id="Path" fill="#222222" points="116.079827 9.56026012 123.369942 9.56026012 153.293931 44.5491329 153.293931 9.56026012 163.652312 9.56026012 163.652312 63.2721098 156.363006 63.2721098 126.437803 28.283237 126.437803 63.2721098 116.079422 63.2721098"></polygon>
            <polygon id="Path" fill="#222222" points="198.949913 38.9477168 198.949913 63.2721098 188.591532 63.2721098 188.591532 38.9477168 170.175665 9.56026012 181.99211 9.56026012 193.808353 28.4359827 205.548728 9.56026012 217.364162 9.56026012"></polygon>
            <path d="M240.768439,9.56026012 C244.418494,9.47850305 248.061545,9.91790096 251.587486,10.8651734 C254.346189,11.6577511 256.943616,12.9303374 259.260578,14.6245376 C262.580649,17.0738473 265.264643,20.2839425 267.087225,23.9853179 C268.997064,27.8483509 269.969764,32.1070512 269.926474,36.416185 C269.970153,40.7253605 268.997432,44.9841498 267.087225,48.847052 C265.264293,52.5485352 262.58038,55.7589492 259.260578,58.2090462 C256.943739,59.9031661 254.346253,61.1753706 251.587486,61.9671965 C248.06166,62.9150645 244.418523,63.3544727 240.768439,63.2721098 L223.887717,63.2721098 L223.887717,9.56026012 L240.768439,9.56026012 Z M259.566474,36.416185 C259.580584,34.2504532 259.230634,32.0977486 258.531243,30.0480058 C257.883397,28.1308299 256.909989,26.3396449 255.653757,24.7530925 C254.17347,22.8639459 252.266946,21.3521068 250.090173,20.3412717 C247.514656,19.221797 244.723824,18.6844927 241.916763,18.7676879 L234.243671,18.7676879 L234.243671,54.0634682 L241.916763,54.0634682 C244.723872,54.1472576 247.514832,53.6099285 250.090173,52.4898844 C252.26736,51.4803691 254.17407,49.9688685 255.653757,48.0794798 C256.909989,46.4929273 257.883397,44.7017424 258.531243,42.7845665 C259.230738,40.73478 259.580691,38.5819912 259.566474,36.416185 Z" id="Shape" fill="#222222"></path>
            <polygon id="Path" fill="#222222" points="278.366329 9.56026012 288.724711 9.56026012 288.724711 63.2721098 278.366329 63.2721098"></polygon>
            <path d="M325.402283,18.0011272 C322.959822,17.9775566 320.540315,18.4741062 318.304566,19.4577746 C316.175863,20.3984156 314.248206,21.7401648 312.626879,23.4097399 C311.003823,25.088967 309.726147,27.0704382 308.866301,29.2417919 C307.960141,31.5242645 307.504113,33.9604903 307.523353,36.416185 C307.501509,38.9167608 307.984563,41.3960247 308.943584,43.7054913 C310.742716,48.1007986 314.223088,51.5953004 318.611069,53.4122254 C323.063364,55.2070318 328.02008,55.3025804 332.538237,53.6806936 C334.446595,52.9613732 336.232568,51.9519695 337.83315,50.6880925 L337.83315,39.1022832 L324.021301,39.1022832 L324.021301,29.8936416 L348.191127,29.8936416 L348.191127,53.756763 C345.675589,56.9153554 342.474596,59.4604319 338.830347,61.199422 C334.710524,63.1554649 330.192668,64.1278363 325.632919,64.0398844 C321.6924,64.0870881 317.781238,63.3569119 314.123179,61.8911272 C310.773283,60.5439405 307.722289,58.5486978 305.145173,56.0198266 C302.620712,53.5136798 300.624579,50.5266341 299.274884,47.2354335 C297.857842,43.8056014 297.140624,40.1271342 297.165376,36.416185 C297.140523,32.7088986 297.844346,29.032853 299.23685,25.5969364 C300.559242,22.3098404 302.529316,19.3223231 305.029855,16.8121387 C307.588842,14.2797464 310.627691,12.2837673 313.968208,10.9412428 C317.626116,9.47518263 321.537268,8.74499556 325.477746,8.79248555 C329.23662,8.74797197 332.966716,9.4525746 336.450347,10.8651734 C339.664781,12.1749176 342.605859,14.0743836 345.12185,16.465578 L338.445549,23.5262717 C336.776659,21.8683477 334.828512,20.5176708 332.690578,19.5362717 C330.403661,18.4946267 327.915065,17.9704501 325.402283,18.0011272 Z" id="Path" fill="#222222"></path>
        </g>
    </g>
</svg>
